icon_installer/data/icons/scalable/actions/show-hand-point-horizontal-symbolic.svg

<?xml version="1.0" encoding="UTF-8"?>
<svg height="16px" viewBox="0 0 16 16" width="16px" xmlns="http://www.w3.org/2000/svg">
    <path d="m 7 7 h 0.5 s 0.5 0 0.5 -0.5 s -0.5 -0.5 -0.5 -0.5 h -5.5 c -0.554688 0 -1 -0.445312 -1 -1 s 0.445312 -1 1 -1 h 9.5 c 0.5 0 0.5 -0.5 0.5 -0.5 l -1.707031 -1.792969 c -0.195313 -0.1875 -0.304688 -0.445312 -0.304688 -0.71875 c 0.085938 -1.082031 1.269531 -1.144531 1.71875 -0.695312 l 3 3 c 0.792969 0.707031 1.289063 1.757812 1.292969 2.707031 v 6 c 0 3 -3 3 -3 3 h -6.054688 c -0.554687 0 -1 -0.445312 -1 -1 s 0.445313 -1 1 -1 h 0.554688 s 0.5 0 0.5 -0.5 s -0.5 -0.5 -0.5 -0.5 h -0.5 c -0.554688 0 -1 -0.445312 -1 -1 s 0.445312 -1 1 -1 h 0.5 s 0.5 0 0.5 -0.5 s -0.5 -0.5 -0.5 -0.5 h -0.5 c -0.554688 0 -0.992188 -0.453125 -1 -1 c -0.011719 -0.585938 0.445312 -1 1 -1 z m 0 0" fill="#222222"/>
</svg>

<svg xmlns="http://www.w3.org/2000/svg" width="16" height="16"><path fill="#222" d="M7 7h.5S8 7 8 6.5 7.5 6 7.5 6H2c-.555 0-1-.445-1-1s.445-1 1-1h9.5c.5 0 .5-.5.5-.5l-1.707-1.793a.992.992 0 0 1-.305-.719c.086-1.082 1.27-1.144 1.719-.695l3 3C15.5 4 15.997 5.051 16 6v6c0 3-3 3-3 3H6.945c-.554 0-1-.445-1-1s.446-1 1-1H7.5s.5 0 .5-.5-.5-.5-.5-.5H7c-.555 0-1-.445-1-1s.445-1 1-1h.5s.5 0 .5-.5-.5-.5-.5-.5H7c-.555 0-.992-.453-1-1-.012-.586.445-1 1-1zm0 0"/></svg>
